icons/place-of-worship-15.svg

<?xml version="1.0" encoding="UTF-8" standalone="no"?>
<!-- Generator: Adobe Illustrator 17.1.0, SVG Export Plug-In . SVG Version: 6.00 Build 0)  -->

<svg
   xmlns:dc="http://purl.org/dc/elements/1.1/"
   xmlns:cc="http://creativecommons.org/ns#"
   xmlns:rdf="http://www.w3.org/1999/02/22-rdf-syntax-ns#"
   xmlns:svg="http://www.w3.org/2000/svg"
   xmlns="http://www.w3.org/2000/svg"
   xmlns:sodipodi="http://sodipodi.sourceforge.net/DTD/sodipodi-0.dtd"
   xmlns:inkscape="http://www.inkscape.org/namespaces/inkscape"
   version="1.1"
   id="svg4619"
   x="0px"
   y="0px"
   height='15'
   width='15'
   viewBox="0 0 15 15"
   enable-background="new 0 0 15 15"
   xml:space="preserve"
   inkscape:version="0.91+devel+osxmenu r12911"
   sodipodi:docname="place-of-worship-15.svg"><metadata
     id="metadata8"><rdf:RDF><cc:Work
         rdf:about=""><dc:format>image/svg+xml</dc:format><dc:type
           rdf:resource="http://purl.org/dc/dcmitype/StillImage" /><dc:title /></cc:Work></rdf:RDF></metadata><defs
     id="defs6" /><sodipodi:namedview
     pagecolor="#ffffff"
     bordercolor="#666666"
     borderopacity="1"
     objecttolerance="10"
     gridtolerance="10"
     guidetolerance="10"
     inkscape:pageopacity="0"
     inkscape:pageshadow="2"
     inkscape:window-width="947"
     inkscape:window-height="687"
     id="namedview4"
     showgrid="false"
     inkscape:snap-bbox="true"
     inkscape:bbox-paths="true"
     inkscape:bbox-nodes="true"
     inkscape:snap-bbox-edge-midpoints="true"
     inkscape:object-paths="true"
     inkscape:snap-intersection-paths="true"
     inkscape:object-nodes="true"
     inkscape:snap-smooth-nodes="true"
     inkscape:zoom="1"
     inkscape:cx="5.7502629"
     inkscape:cy="7.4372946"
     inkscape:window-x="7"
     inkscape:window-y="0"
     inkscape:window-maximized="0"
     inkscape:current-layer="svg4619"><inkscape:grid
       type="xygrid"
       id="grid3336"
       spacingx="0.5"
       spacingy="0.5"
       color="#ff0000"
       opacity="0.1254902"
       empspacing="2" /></sodipodi:namedview><path
     style="fill:#000000;fill-opacity:1"
     d="m 7.5,0 -2,2 0,2 4,0 0,-2 z M 5.5,4.5 4,6 11,6 9.5,4.5 Z M 2,6.5 c -0.5522847,0 -1,0.4477153 -1,1 L 1,13 3,13 3,7.5 C 3,6.9477153 2.5522847,6.5 2,6.5 Z m 2,0 0,6.5 7,0 0,-6.5 z m 9,0 c -0.552285,0 -1,0.4477153 -1,1 l 0,5.5 2,0 0,-5.5 c 0,-0.5522847 -0.447715,-1 -1,-1 z"
     id="path9064"
     inkscape:connector-curvature="0"
     sodipodi:nodetypes="cccccccccccssccsscccccssccss" /></svg>

<?xml version="1.0" encoding="utf-8"?>
<!-- Generator: Adobe Illustrator 19.2.1, SVG Export Plug-In . SVG Version: 6.00 Build 0)  -->
<!DOCTYPE svg PUBLIC "-//W3C//DTD SVG 1.1//EN" "http://www.w3.org/Graphics/SVG/1.1/DTD/svg11.dtd">
<svg version="1.1"
	 id="svg4619" inkscape:version="0.91+devel+osxmenu r12911" sodipodi:docname="place-of-worship-15.svg" xmlns:cc="http://creativecommons.org/ns#" xmlns:dc="http://purl.org/dc/elements/1.1/" xmlns:inkscape="http://www.inkscape.org/namespaces/inkscape" xmlns:rdf="http://www.w3.org/1999/02/22-rdf-syntax-ns#" xmlns:sodipodi="http://sodipodi.sourceforge.net/DTD/sodipodi-0.dtd" xmlns:svg="http://www.w3.org/2000/svg"
	 xmlns="http://www.w3.org/2000/svg" xmlns:xlink="http://www.w3.org/1999/xlink" x="0px" y="0px" width="15px" height="15px"
	 viewBox="0 0 15 15" style="enable-background:new 0 0 15 15;" xml:space="preserve">
<path id="path9064" inkscape:connector-curvature="0" sodipodi:nodetypes="cccccccccccssccsscccccssccss" d="M7.5,0l-2,2v2h4V2
	L7.5,0z M5.5,4.5L4,6h7L9.5,4.5H5.5z M2,6.5c-0.5523,0-1,0.4477-1,1V13h2V7.5C3,6.9477,2.5523,6.5,2,6.5z M4,6.5V13h7V6.5H4z
	 M13,6.5c-0.5523,0-1,0.4477-1,1V13h2V7.5C14,6.9477,13.5523,6.5,13,6.5z"/>
</svg>
